!! 00000] TT[WS
!!!OTL: Da dianhua
!!!ARE: Asia, China, Shanxi Zuoqun
!! Ethnic Group: Han
!! WI, 271 (1)
!!!SCT: J0322
!!!YEM: Copyright 1995, estate of Helmut Schaffrath.
**kern
*ICvox
*Ivox
*M2/4
*k[f#]
*G:
{8dd
8dd
8cc
16b
16a
=1
16g
16a
16b
16dd
4a}
=2
{8dd
8dd
8cc
16b
16a
=3
16g
16a
16b
16dd
4a}
=4
{8dd
16dd
16b
8.a
16b
=5
16g
16a
16b
16dd
4a}
=6
{8a
16a
16b
8a
8b
=7
8.d
16e
8g
8a
=8
8f#
8d
4d}
==
!!!AGN: Xiaodiao. XÅshi
!!!ONB: ESAC (Essen Associative Code) Database: CHINA
!!!AMT: simple duple
!!!AIN: vox
!!!EED: Helmut Schaffrath
!!!EEV: 1.0
*-
